template/svg/rutube.svg

<?xml version="1.0" encoding="UTF-8"?> <svg xmlns="http://www.w3.org/2000/svg" width="132" height="132" viewBox="0 0 132 132" fill="none"><g clip-path="url(#clip0_519_2005)"><rect width="132" height="132" fill="#100943"></rect><path d="M132 66.0001C168.451 66.0001 198 36.4508 198 3.05176e-05C198 -36.4508 168.451 -66 132 -66C95.5492 -66 66 -36.4508 66 3.05176e-05C66 36.4508 95.5492 66.0001 132 66.0001Z" fill="#ED143B"></path><path d="M81.5361 62.9865H42.5386V47.5547H81.5361C83.814 47.5547 85.3979 47.9518 86.1928 48.6451C86.9877 49.3385 87.4801 50.6245 87.4801 52.5031V58.0441C87.4801 60.0234 86.9877 61.3094 86.1928 62.0028C85.3979 62.6961 83.814 62.9925 81.5361 62.9925V62.9865ZM84.2115 33.0059H26V99H42.5386V77.5294H73.0176L87.4801 99H106L90.0546 77.4287C95.9333 76.5575 98.573 74.756 100.75 71.7869C102.927 68.8179 104.019 64.071 104.019 57.7359V52.7876C104.019 49.0303 103.621 46.0613 102.927 43.7857C102.233 41.51 101.047 39.5307 99.362 37.7528C97.5824 36.0698 95.6011 34.8845 93.2223 34.0904C90.8435 33.3971 87.8716 33 84.2115 33V33.0059Z" fill="white"></path></g><defs><clipPath id="clip0_519_2005"><rect width="132" height="132" rx="32" fill="white"></rect></clipPath></defs></svg>

<svg xmlns="http://www.w3.org/2000/svg" width="132" height="132" fill="none"><g clip-path="url(#a)"><path fill="#100943" d="M0 0h132v132H0z"/><path fill="#ED143B" d="M132 66c36.451 0 66-29.55 66-66s-29.549-66-66-66C95.55-66 66-36.45 66 0s29.55 66 66 66Z"/><path fill="#fff" d="M81.536 62.986H42.54V47.556h38.997c2.278 0 3.862.397 4.657 1.09.795.694 1.287 1.98 1.287 3.858v5.541c0 1.98-.492 3.265-1.287 3.959-.795.693-2.379.99-4.657.99v-.007Zm2.675-29.98H26V99h16.539V77.53h30.479L87.48 99H106L90.055 77.429c5.878-.871 8.518-2.673 10.695-5.642 2.177-2.97 3.269-7.716 3.269-14.051v-4.948c0-3.758-.398-6.727-1.092-9.002-.694-2.276-1.88-4.255-3.565-6.033-1.78-1.683-3.76-2.868-6.14-3.663-2.378-.693-5.35-1.09-9.01-1.09v.006Z"/></g><defs><clipPath id="a"><rect width="132" height="132" fill="#fff" rx="32"/></clipPath></defs></svg>
